public/piece/anarcandy/wN.svg

<svg width="512" height="512" viewBox="0 0 512 512" fill="none" xmlns="http://www.w3.org/2000/svg">
<path fill-rule="evenodd" clip-rule="evenodd" d="M245.789 317.391V286.194C243.367 289.827 210.672 307.991 185.242 318.89C164.898 327.609 153.354 349.971 150.125 360.062C125.906 414.312 100.476 398.005 90.7885 383.07C25.3975 369.749 45.9836 301.937 56.8821 288.616C65.6009 277.96 84.7338 243.811 93.2104 228.069L100.476 182.053C100.476 164.616 124.695 141.688 136.804 132.404C135.997 118.68 134.382 88.8105 134.382 79.1229C134.382 69.4354 142.455 70.2427 146.492 71.8573L197.351 99.709C204.213 94.4616 219.391 82.0292 225.203 74.2792C231.016 66.5292 236.505 71.05 238.524 74.2792L260.321 116.662L287.497 115.87L312.632 116.662C317.291 116.662 321.977 117.287 326.368 118.845C447.541 161.851 470.449 368.362 466.597 476.543C466.408 481.858 462.013 486 456.695 486H171.084C166.032 486 161.742 482.232 161.624 477.18C161.107 455.015 167.092 418.582 194.93 400.023C224.083 380.587 239.339 346.248 244.555 327.493C245.469 324.207 245.789 320.803 245.789 317.391Z" fill="#00173C"/>
<path fill-rule="evenodd" clip-rule="evenodd" d="M108.004 352.203C113.252 348.57 123.845 345.918 119.97 362.387C118.356 365.616 114.039 371.761 110.164 375.636C106.289 379.511 110.473 380.717 112.492 381.121C116.124 381.524 121.138 380.338 126.951 370.65C128.32 368.369 131.022 364.782 132.934 360.679C141.171 343.001 154.306 310.163 183.79 299.352C219.436 286.282 266.942 264.041 267.569 217.45C267.593 215.692 267.946 213.876 269.189 212.632C272.768 209.049 280.023 206.152 284.971 213.093C285.717 214.14 286.087 215.397 286.183 216.679C287.047 228.325 285.09 254.06 264.063 276.915C267.696 306.785 262.941 376.717 207.722 413.529C197.801 421.543 180.869 437.423 181.505 462.871C181.569 465.433 183.743 467.377 186.305 467.377H439.134C441.864 467.377 444.09 465.254 444.119 462.524C445.182 360.676 429.297 169.813 319.657 139.304C314.006 137.69 294.779 134.845 254.091 135.814C251.266 133.392 240.815 120.089 230.159 93.9324C221.279 103.62 200.502 121.141 175.314 130.828C143.829 142.938 127.236 159.045 119.97 182.053C114.158 200.459 112.895 220.4 112.492 228.069C109.666 236.546 97.4923 262.46 79.0859 288.616C56.078 321.312 49.5236 356.903 95.5394 364.169C96.3467 362.554 98.3166 360.921 108.004 352.203ZM91.0521 326.774C85.6636 333.959 76.0033 338.004 70.7634 339.843C70.1679 340.052 69.5388 339.655 69.4642 339.029C69.0077 335.192 68.312 327.734 70.1113 322.786C71.2274 319.716 75.1544 316.491 78.3966 314.245C81.2215 312.289 84.9616 312.274 87.5565 314.526C90.9701 317.49 94.5397 322.124 91.0521 326.774Z" fill="#FF9CAE"/>
<path d="M151.336 93.9324L152.877 119.859L175.314 107.394L151.336 93.9324Z" fill="#FF9CAE"/>
<path d="M47.0011 182H301.299V191.688L310.985 191.688V201.375H301.298L301.299 191.688L240.751 191.688V203.797H233.485V211.063L223.797 211.063V218.329L214.11 218.329V228.016H168.094V218.329L158.406 218.329V211.063H151.141V191.688L136.61 191.688L136.609 211.063H126.922V218.329L119.657 218.329V228.016H71.2189V218.329L63.9534 218.329V211.063H54.2645V201.375L47 201.375L47.0011 182Z" fill="#810F23"/>
<path d="M110.163 191.741H102.898V199.006H110.163V191.741Z" fill="#FF9CAE"/>
<path d="M93.21 201.428H100.476V208.694H93.21V201.428Z" fill="#FF9CAE"/>
<path d="M110.163 201.428H117.428V208.694H110.163V201.428Z" fill="#FF9CAE"/>
<path d="M93.2097 211.116H85.9441V218.382H93.2097V211.116Z" fill="#FF9CAE"/>
<path d="M100.475 211.116H107.741V218.382H100.475V211.116Z" fill="#FF9CAE"/>
<path d="M119.85 191.741H127.116V199.006H119.85V191.741Z" fill="#FF9CAE"/>
<path d="M204.616 191.741H197.351V199.006H204.616V191.741Z" fill="#FF9CAE"/>
<path d="M187.663 201.428H194.929V208.694H187.663V201.428Z" fill="#FF9CAE"/>
<path d="M204.616 201.428H211.881V208.694H204.616V201.428Z" fill="#FF9CAE"/>
<path d="M187.663 211.116H180.397V218.382H187.663V211.116Z" fill="#FF9CAE"/>
<path d="M194.928 211.116H202.193V218.382H194.928V211.116Z" fill="#FF9CAE"/>
<path d="M214.303 191.741H221.569V199.006H214.303V191.741Z" fill="#FF9CAE"/>
</svg>

<svg xmlns="http://www.w3.org/2000/svg" width="512" height="512" fill="none"><path fill="#00173C" fill-rule="evenodd" d="M245.789 317.391v-31.197c-2.422 3.633-35.117 21.797-60.547 32.696-20.344 8.719-31.888 31.081-35.117 41.172-24.219 54.25-49.649 37.943-59.337 23.008-65.39-13.321-44.804-81.133-33.906-94.454 8.719-10.656 27.852-44.805 36.328-60.547l7.266-46.016c0-17.437 24.219-40.365 36.328-49.649-.807-13.724-2.422-43.593-2.422-53.281 0-9.688 8.073-8.88 12.11-7.266l50.859 27.852c6.862-5.247 22.04-17.68 27.852-25.43 5.813-7.75 11.302-3.229 13.321 0l21.797 42.383 27.176-.792 25.135.792c4.659 0 9.345.625 13.736 2.183 121.173 43.006 144.081 249.517 140.229 357.698-.189 5.315-4.584 9.457-9.902 9.457H171.084c-5.052 0-9.342-3.768-9.46-8.82-.517-22.165 5.468-58.598 33.306-77.157 29.153-19.436 44.409-53.775 49.625-72.53.914-3.286 1.234-6.69 1.234-10.102Z" clip-rule="evenodd"/><path fill="#FF9CAE" fill-rule="evenodd" d="M108.004 352.203c5.248-3.633 15.841-6.285 11.966 10.184-1.614 3.229-5.931 9.374-9.806 13.249-3.875 3.875.309 5.081 2.328 5.485 3.632.403 8.646-.783 14.459-10.471 1.369-2.281 4.071-5.868 5.983-9.971 8.237-17.678 21.372-50.516 50.856-61.327 35.646-13.07 83.152-35.311 83.779-81.902.024-1.758.377-3.574 1.62-4.818 3.579-3.583 10.834-6.48 15.782.461.746 1.047 1.116 2.304 1.212 3.586.864 11.646-1.093 37.381-22.12 60.236 3.633 29.87-1.122 99.802-56.341 136.614-9.921 8.014-26.853 23.894-26.217 49.342.064 2.562 2.238 4.506 4.8 4.506h252.829c2.73 0 4.956-2.123 4.985-4.853 1.063-101.848-14.822-292.711-124.462-323.22-5.651-1.614-24.878-4.459-65.566-3.49-2.825-2.422-13.276-15.725-23.932-41.882-8.88 9.688-29.657 27.209-54.845 36.896-31.485 12.11-48.078 28.217-55.344 51.225-5.812 18.406-7.075 38.347-7.478 46.016-2.826 8.477-15 34.391-33.406 60.547-23.008 32.696-29.562 68.287 16.453 75.553.808-1.615 2.778-3.248 12.465-11.966Zm-16.952-25.429c-5.388 7.185-15.049 11.23-20.289 13.069a.98.98 0 0 1-1.299-.814c-.456-3.837-1.152-11.295.647-16.243 1.116-3.07 5.043-6.295 8.286-8.541 2.825-1.956 6.565-1.971 9.16.281 3.413 2.964 6.983 7.598 3.495 12.248Z" clip-rule="evenodd"/><path fill="#FF9CAE" d="m151.336 93.932 1.541 25.927 22.437-12.465-23.978-13.462Z"/><path fill="#810F23" d="M47.001 182H301.3v9.688h9.686v9.687h-9.687l.001-9.687h-60.548v12.109h-7.266v7.266h-9.688v7.266h-9.687v9.687h-46.016v-9.687h-9.688v-7.266h-7.265v-19.375H136.61l-.001 19.375h-9.687v7.266h-7.265v9.687H71.219v-9.687h-7.266v-7.266h-9.689v-9.688H47L47.001 182Z"/><path fill="#FF9CAE" d="M110.163 191.741h-7.265v7.265h7.265v-7.265ZM93.21 201.428h7.266v7.266H93.21v-7.266ZM110.163 201.428h7.265v7.266h-7.265v-7.266ZM93.21 211.116h-7.266v7.266h7.266v-7.266ZM100.475 211.116h7.266v7.266h-7.266v-7.266ZM119.85 191.741h7.266v7.265h-7.266v-7.265ZM204.616 191.741h-7.265v7.265h7.265v-7.265ZM187.663 201.428h7.266v7.266h-7.266v-7.266ZM204.616 201.428h7.265v7.266h-7.265v-7.266ZM187.663 211.116h-7.266v7.266h7.266v-7.266ZM194.928 211.116h7.265v7.266h-7.265v-7.266ZM214.303 191.741h7.266v7.265h-7.266v-7.265Z"/></svg>
